icon_installer/data/icons/scalable/actions/show-wacom-symbolic.svg

<?xml version="1.0" encoding="UTF-8"?>
<svg height="16px" viewBox="0 0 16.007812 16" width="16.007812px" xmlns="http://www.w3.org/2000/svg">
    <path d="m 8 0 v 1.5 c 0 0.132812 -0.054688 0.261719 -0.144531 0.355469 c -0.09375 0.09375 -0.21875 0.144531 -0.347657 0.144531 h -3.011718 c -0.535156 0 -1.03125 0.289062 -1.296875 0.75 c -0.265625 0.464844 -0.265625 1.035156 0 1.5 c 0.265625 0.460938 0.761719 0.75 1.296875 0.75 h 3.007812 c 0.179688 0 0.339844 0.09375 0.429688 0.25 c 0.042968 0.074219 0.066406 0.164062 0.066406 0.25 v 0.5 h -5 c -1.644531 0 -3 1.355469 -3 3 v 4 c 0 1.644531 1.355469 3 3 3 h 10 c 1.644531 0 3 -1.355469 3 -3 v -4 c 0 -0.867188 -0.378906 -1.648438 -0.972656 -2.199219 l -1.410156 1.402344 c 0.234374 0.179687 0.382812 0.460937 0.382812 0.796875 v 3 c 0 0.554688 -0.445312 1 -1 1 h -10 c -0.554688 0 -1 -0.445312 -1 -1 v -3 c 0 -0.570312 0.5 -1 1 -1 h 5.191406 l 1.992188 -2 h -1.183594 v -0.5 c 0 -0.257812 -0.066406 -0.515625 -0.199219 -0.75 c -0.265625 -0.460938 -0.761719 -0.75 -1.296875 -0.75 h -3.007812 c -0.179688 0 -0.339844 -0.09375 -0.429688 -0.25 c -0.089844 -0.152344 -0.089844 -0.347656 0 -0.5 c 0.089844 -0.15625 0.25 -0.25 0.429688 -0.25 h 3.011718 c 0.398438 0 0.777344 -0.160156 1.054688 -0.441406 c 0.28125 -0.28125 0.4375 -0.660156 0.4375 -1.058594 v -1.5 z m 7 3 c -0.265625 0 -0.519531 0.105469 -0.703125 0.292969 h -0.003906 l -6.292969 6.316406 v 1.390625 h 1.390625 l 6.316406 -6.292969 l -0.003906 -0.003906 c 0.191406 -0.183594 0.296875 -0.4375 0.296875 -0.703125 c 0 -0.550781 -0.449219 -1 -1 -1 z m 0 0" fill="#2e3436"/>
</svg>

<svg xmlns="http://www.w3.org/2000/svg" width="16.008" height="16"><path fill="#2e3436" d="M8 0v1.5a.491.491 0 0 1-.492.5H4.496a1.501 1.501 0 0 0 0 3h3.008c.18 0 .34.094.43.25A.51.51 0 0 1 8 5.5V6H3C1.355 6 0 7.355 0 9v4c0 1.645 1.355 3 3 3h10c1.645 0 3-1.355 3-3V9c0-.867-.379-1.648-.973-2.2l-1.41 1.403c.235.18.383.461.383.797v3c0 .555-.445 1-1 1H3c-.555 0-1-.445-1-1V9c0-.57.5-1 1-1h5.191l1.993-2H9v-.5A1.501 1.501 0 0 0 7.504 4H4.496a.49.49 0 0 1-.43-.25.497.497 0 0 1 0-.5.49.49 0 0 1 .43-.25h3.012c.398 0 .777-.16 1.054-.441C8.845 2.277 9 1.899 9 1.5V0zm7 3a.984.984 0 0 0-.703.293h-.004L8 9.609V11h1.39l6.317-6.293-.004-.004A.971.971 0 0 0 16 4c0-.55-.45-1-1-1zm0 0"/></svg>
